**harmony	**harte	**kern	**silbe	**rhyme	**timestamp	**phrase
*M4/4	*M4/4	*ICvox	*	*	*	*
*	*	*VRlead	*	*	*	*
*	*	*Hstimme	*	*	*	*
*D:	*D:	*D:	*	*	*	*
*	*	*M4/4	*	*	*	*
*	*	*clefC3	*	*	*	*
1r;	1r	r;	.	.	0	.
=1	=1	=1	=1	=1	=1	=1
*>Letter>A	*>Letter>A	*>Letter>A	*>Letter>A	*>Letter>A	*>Letter>A	*>Letter>A
*>Label>Intro	*>Label>Intro	*>Label>Intro	*>Label>Intro	*>Label>Intro	*>Label>Intro	*>Label>Intro
1DMM	D:maj9	2r	.	.	0.395	newline
.	.	4r	.	.	.	.
.	.	8r	.	.	.	.
.	.	16a	Ba	.	.	.
.	.	16b-	ba	.	.	.
=2	=2	=2	=2	=2	=2	=2
4.FM	F:maj/2	8cc	ba-	.	3.089	.
.	.	8b-	-ya	.	.	.
.	.	8a	ba	.	.	.
2Amm	A:min7	[8g	bum	.	4.436	.
.	.	8g]	_	.	.	.
.	.	4e	bum	.	.	.
8CM	C:sus4(b7,9,13)	[8f	ba	.	.	.
=3	=3	=3	=3	=3	=3	=3
1CM	C:sus4(b7,9,13)	4f]	_	.	5.783	.
.	.	4r	.	.	.	.
.	.	4r	.	.	.	.
.	.	8r	.	.	.	.
.	.	24e	ba-	.	.	.
.	.	24f	-da-	.	.	.
.	.	24e	-ya	.	.	.
=4	=4	=4	=4	=4	=4	=4
4.Gmm	G:min7	4.d	bum	.	8.477	.
2AM	A:sus4(b7)	[8A	bum	.	9.824	.
.	.	8A]	_	.	.	.
.	.	4a	wee	.	.	.
8DMM	D:maj9	[8a	bah	.	.	.
=5	=5	=5	=5	=5	=5	=5
1DMM	D:maj9	4.a]	_	.	11.171	newline
.	.	8r	.	.	.	.
.	.	4r	.	.	.	.
.	.	8r	.	.	.	.
.	.	16a	_	.	.	.
.	.	16b-	_	.	.	.
=6	=6	=6	=6	=6	=6	=6
4.FM	F:maj/2	8cc	Ba	.	13.792	.
.	.	8b-	ba-	.	.	.
.	.	8a	-ya	.	.	.
2Amm	A:min7	[8g	ba	.	15.103	.
.	.	8g]	bum	.	.	.
.	.	4e	_	.	.	.
8CM	C:sus4(b7,9,13)	[8f	_	.	.	.
=7	=7	=7	=7	=7	=7	=7
1CM	C:sus4(b7,9,13)	4f_	ba	.	16.414	.
.	.	8.f]	_	.	.	.
.	.	16r	.	.	.	.
.	.	4r	.	.	.	.
.	.	4r	.	.	.	.
=8	=8	=8	=8	=8	=8	=8
4.Gmm	G:min7	2r	.	.	19.036	.
8%5AM	A:sus4(b7)	.	.	.	20.347	.
.	.	8r	.	.	.	.
.	.	8d	When	.	.	.
.	.	8e	we	.	.	.
.	.	8eq	_	.	.	.
.	.	8f#	met	.	.	.
=9	=9	=9	=9	=9	=9	=9
*>Letter>B	*>Letter>B	*>Letter>B	*>Letter>B	*>Letter>B	*>Letter>B	*>Letter>B
*>Label>Verse	*>Label>Verse	*>Label>Verse	*>Label>Verse	*>Label>Verse	*>Label>Verse	*>Label>Verse
1DMM	D:maj7	8e	_	.	21.658	newline
.	.	8r	.	.	.	.
.	.	4r	.	.	.	.
.	.	8r	.	.	.	.
.	.	8a	Al	.	.	.
.	.	8g	_	.	.	.
.	.	8g	ways	.	.	.
=10	=10	=10	=10	=10	=10	=10
1F#mm	F#:min7	8f#	_	.	24.284	.
.	.	16g	knew	A	.	.
.	.	[16f#	_	.	.	.
.	.	4f#]	_	.	.	.
.	.	8r	.	.	.	.
.	.	8d	I	.	.	.
.	.	8e	would	.	.	.
.	.	8eq	_	.	.	.
.	.	[8f#	feel	.	.	.
=11	=11	=11	=11	=11	=11	=11
1GMM	G:maj7	4f#]	_	.	26.909	.
.	.	8g	that	.	.	.
.	.	[8e	ma	.	.	.
.	.	8e]	_	.	.	.
.	.	8d	gic	.	.	.
.	.	16~f	for	.	.	.
.	.	16d	_	.	.	.
.	.	[8e	you	A	.	.
=12	=12	=12	=12	=12	=12	=12
1CM	C:sus4(b7,9,13)	4e]	_	.	29.534	.
.	.	4r	.	.	.	.
.	.	8r	.	.	.	.
.	.	8d	On	.	.	.
.	.	8e	my	.	.	.
.	.	8eq	_	.	.	.
.	.	8f#	mind	.	.	.
=13	=13	=13	=13	=13	=13	=13
1DMM	D:maj7	8e	_	.	32.16	newline
.	.	8e	_	.	.	.
.	.	4r	.	.	.	.
.	.	8r	.	.	.	.
.	.	4a	con-	.	.	.
.	.	16g	-stant	.	.	.
.	.	16f#	_	.	.	.
=14	=14	=14	=14	=14	=14	=14
1F#mm	F#:min7	16g	ly	.	34.783	.
.	.	8.f#	_	.	.	.
.	.	4r	.	.	.	.
.	.	8r	.	.	.	.
.	.	8d	in	.	.	.
.	.	8e	my	.	.	.
.	.	[8f#	arms	.	.	.
=15	=15	=15	=15	=15	=15	=15
1GMM	G:maj7	4f#]	_	.	37.407	.
.	.	8g	is	.	.	.
.	.	[8e	where	.	.	.
.	.	8e]	_	.	.	.
.	.	8d	you	.	.	.
.	.	16~f	should	.	.	.
.	.	16d	_	.	.	.
.	.	8e	be	.	.	.
=16	=16	=16	=16	=16	=16	=16
1CM	C:sus4(b7,9,13)	2r	.	.	40.031	.
.	.	8r	.	.	.	.
.	.	8.d	Mmm.	.	.	.
.	.	16r	.	.	.	.
.	.	8r	.	.	.	.
=17	=17	=17	=17	=17	=17	=17
*>Letter>C	*>Letter>C	*>Letter>C	*>Letter>C	*>Letter>C	*>Letter>C	*>Letter>C
*>Label>Prechorus	*>Label>Prechorus	*>Label>Prechorus	*>Label>Prechorus	*>Label>Prechorus	*>Label>Prechorus	*>Label>Prechorus
2C#m	C#:1(b3,b7,11,9)	4r	.	.	42.655	newline
.	.	8f#	I	.	.	.
.	.	8e	_	.	.	.
2F#Mm	F#:7	8e	love	.	43.97	.
.	.	4d	you	.	.	.
.	.	[8e	here	.	.	.
=18	=18	=18	=18	=18	=18	=18
2Bmm	B:min7	8e]	_	.	45.285	.
.	.	8f#	by	.	.	.
.	.	8e	_	.	.	.
.	.	16e	me,	B	.	.
.	.	[16d	_	.	.	.
2EMm	E:7	4d]	_	.	46.6	.
.	.	8dq	_	.	.	.
.	.	8e	ba-	.	.	.
.	.	8f#	-by	B	.	.
=19	=19	=19	=19	=19	=19	=19
2Am	A:min	4r	.	.	47.914	.
.	.	8f#	you	.	.	.
.	.	8e	_	.	.	.
2DMm	D:7	8e	let	.	49.229	.
.	.	4d	my	.	.	.
.	.	[8a	love	.	.	.
=20	=20	=20	=20	=20	=20	=20
2GMM	G:maj7	8a]	_	.	50.544	.
.	.	8f#	fly	.	.	.
.	.	8e	_	.	.	.
.	.	16e	free	(B	.	.
.	.	[16d	_	.	.	.
2CMm	C:13	8d]	_	.	51.859	.
.	.	16e	ly	B)	.	.
.	.	16f#	_	.	.	.
.	.	8e	_	.	.	.
.	.	8r	.	.	.	.
=21	=21	=21	=21	=21	=21	=21
2C#m	C#:1(b3,b7,11,9)	4r	.	.	53.174	newline
.	.	8f#	I	.	.	.
.	.	8e	_	.	.	.
2F#Mm	F#:7	8e	want	.	54.497	.
.	.	4d	you	.	.	.
.	.	[8e	in	.	.	.
=22	=22	=22	=22	=22	=22	=22
2Bmm	B:min7	8e]	_	.	55.821	.
.	.	8f#	my	.	.	.
.	.	8d	_	.	.	.
.	.	8d	life	C	.	.
2EMm	E:7	8r	.	.	57.144	.
.	.	16d	for	.	.	.
.	.	16e	_	.	.	.
.	.	8f#	all	.	.	.
.	.	8f#	time	C	.	.
=23	=23	=23	=23	=23	=23	=23
1AM	A:sus4(b7,9)	16e	_	.	58.467	.
.	.	[8.d	_	.	.	.
.	.	4d_	_	.	.	.
.	.	8.d]	_	.	.	.
.	.	16r	.	.	.	.
.	.	4r	.	.	.	.
=24	=24	=24	=24	=24	=24	=24
.	.	8Aq	_	.	.	.
2..AM	A:sus4(b7,9)	4B	I'm	.	61.114	.
.	.	8c#	_	.	.	.
.	.	[8d	_	.	.	.
.	.	8d]	_	.	.	.
.	.	8e	_	.	.	.
.	.	8f#	_	.	.	.
8Bmm	B:min7	[8a	_	.	.	.
=25	=25	=25	=25	=25	=25	=25
*>Letter>D	*>Letter>D	*>Letter>D	*>Letter>D	*>Letter>D	*>Letter>D	*>Letter>D
*>Label>Chorus	*>Label>Chorus	*>Label>Chorus	*>Label>Chorus	*>Label>Chorus	*>Label>Chorus	*>Label>Chorus
*b:	*b:	*b:	*	*	*	*
1Bmm	B:min7	2a_	_	.	63.761	newline
.	.	8a]	_	.	.	.
.	.	8f#	_	.	.	.
.	.	4r	.	.	.	.
=26	=26	=26	=26	=26	=26	=26
.	.	8gq	_	.	.	.
1Bmm	B:min7	8a	caught	.	66.385	.
.	.	8a	up	.	.	.
.	.	32a	in	.	.	.
.	.	16.f#	_	.	.	.
.	.	32f#	the	.	.	.
.	.	16.e	_	.	.	.
.	.	8e	rap-	D	.	.
.	.	8c#	-ture	.	.	.
.	.	8c#	of	.	.	.
.	.	32d	love	.	.	.
.	.	[16.B	_	.	.	.
=27	=27	=27	=27	=27	=27	=27
1GMM	G:maj7	2B_	_	.	69.009	.
.	.	8~Gq	_	.	.	.
.	.	8B]	_	.	.	.
.	.	8r	.	.	.	.
.	.	4r	.	.	.	.
=28	=28	=28	=28	=28	=28	=28
.	.	8Aq	_	.	.	.
2Emm	E:min7	4B	No-	.	71.633	.
.	.	8c#	-thing	.	.	.
.	.	[8d	else	.	.	.
2F#Am	F#:aug(b7)	8d]	_	.	72.945	.
.	.	8e	can	.	.	.
.	.	8f#	com	.	.	.
.	.	8eq	_	.	.	.
.	.	8f#	pare	.	.	.
=29	=29	=29	=29	=29	=29	=29
1Bmm	B:min7	2.e	_	.	74.257	newline
.	.	4r	.	.	.	.
=30	=30	=30	=30	=30	=30	=30
.	.	8gq	_	.	.	.
1Bmm	B:min7	8a	When	.	76.887	.
.	.	8a	I	.	.	.
.	.	32a	feel	.	.	.
.	.	16.f#	_	.	.	.
.	.	32f#	the	.	.	.
.	.	16.e	_	.	.	.
.	.	8e	ma-	D	.	.
.	.	8c#	-gic	.	.	.
.	.	8c#	in	.	.	.
.	.	32d	you!	.	.	.
.	.	[16.B	_	.	.	.
=31	=31	=31	=31	=31	=31	=31
1GMM	G:maj7	2B_	_	.	79.517	.
.	.	8B]	_	.	.	.
.	.	8r	.	.	.	.
.	.	4r	.	.	.	.
=32	=32	=32	=32	=32	=32	=32
.	.	8Aq	_	.	.	.
4.Emm	E:min7	4B	_	.	82.147	.
.	.	8c#	_	.	.	.
.	.	8c#q	_	.	.	.
2AM	A:sus4(b7)	[8d	_	.	83.462	.
.	.	8d]	_	.	.	.
.	.	8e	_	.	.	.
.	.	8f#	_	.	.	.
8DMM	D:maj9	[8a	_	.	.	.
=33	=33	=33	=33	=33	=33	=33
*>Letter>A	*>Letter>A	*>Letter>A	*>Letter>A	*>Letter>A	*>Letter>A	*>Letter>A
*>Label>Interlude	*>Label>Interlude	*>Label>Interlude	*>Label>Interlude	*>Label>Interlude	*>Label>Interlude	*>Label>Interlude
*D:	*D:	*D:	*	*	*	*
1DMM	D:maj9	2a_	_	.	84.777	newline
.	.	8a]	_	.	.	.
.	.	8r	.	.	.	.
.	.	8r	.	.	.	.
.	.	16a	Ba	.	.	.
.	.	16b-	ba	.	.	.
=34	=34	=34	=34	=34	=34	=34
4.FM	F:maj/2	8cc	ba	.	87.4	.
.	.	8b-	ya	.	.	.
.	.	8a	ba	.	.	.
2Amm	A:min7	[8g	bum	.	88.712	.
.	.	8g]	_	.	.	.
.	.	4e	bum	.	.	.
8CM	C:sus4(b7,9,13)	[8f	ba	.	.	.
=35	=35	=35	=35	=35	=35	=35
1CM	C:sus4(b7,9,13)	4f]	_	.	90.024	.
.	.	4r	.	.	.	.
.	.	4r	.	.	.	.
.	.	8r	.	.	.	.
.	.	24e	huh	.	.	.
.	.	24f	huh	.	.	.
.	.	24e	ya	.	.	.
=36	=36	=36	=36	=36	=36	=36
4.Gmm	G:min7	4.d	bum	.	92.648	.
2AM	A:sus4(b7)	[8A	bum,	.	93.96	.
.	.	8A]	_	.	.	.
.	.	4a	we	.	.	.
8DMM	D:maj7	[8a	stand	.	.	.
=37	=37	=37	=37	=37	=37	=37
*>Letter>B	*>Letter>B	*>Letter>B	*>Letter>B	*>Letter>B	*>Letter>B	*>Letter>B
*>Label>Verse	*>Label>Verse	*>Label>Verse	*>Label>Verse	*>Label>Verse	*>Label>Verse	*>Label>Verse
1DMM	D:maj7	8a]	_	.	95.271	newline
.	.	8f#	_	.	.	.
.	.	4r	.	.	.	.
.	.	8r	.	.	.	.
.	.	8a	side	C	.	.
.	.	8g	_	.	.	.
.	.	8g	by	.	.	.
=38	=38	=38	=38	=38	=38	=38
1F#mm	F#:min7	8f#	_	.	97.9	.
.	.	8f#	side	C	.	.
.	.	4r	.	.	.	.
.	.	8r	.	.	.	.
.	.	8d	'till	.	.	.
.	.	8e	the	.	.	.
.	.	16e	storms	.	.	.
.	.	[16f#	_	.	.	.
=39	=39	=39	=39	=39	=39	=39
1GMM	G:maj7	4f#]	_	.	100.528	.
.	.	8g	of	.	.	.
.	.	[8e	life	C	.	.
.	.	8e]	_	.	.	.
.	.	8d	pass	.	.	.
.	.	8~f	us	.	.	.
.	.	8dq	_	.	.	.
.	.	8e	by	C	.	.
=40	=40	=40	=40	=40	=40	=40
1CM	C:sus4(b7,9,13)	4e	_	.	103.156	.
.	.	4r	.	.	.	.
.	.	8r	.	.	.	.
.	.	8d	Light	C	.	.
.	.	8e	my	.	.	.
.	.	8eq	_	.	.	.
.	.	8f#	life	.	.	.
=41	=41	=41	=41	=41	=41	=41
1DMM	D:maj7	8e	_	.	105.784	newline
.	.	8r	.	.	.	.
.	.	4r	.	.	.	.
.	.	8r	.	.	.	.
.	.	8a	Warm	.	.	.
.	.	8g	_	.	.	.
.	.	8g	my	.	.	.
=42	=42	=42	=42	=42	=42	=42
1F#mm	F#:min7	8f#	_	.	108.409	.
.	.	8f#	heart	E	.	.
.	.	16e	_	.	.	.
.	.	8.d	_	.	.	.
.	.	8r	.	.	.	.
.	.	8d	Say	.	.	.
.	.	8e	to	.	.	.
.	.	8eq	_	.	.	.
.	.	[8f#	night	.	.	.
=43	=43	=43	=43	=43	=43	=43
1GMM	G:maj7	4f#]	_	.	111.035	.
.	.	32g	will	.	.	.
.	.	16.e	_	.	.	.
.	.	[8e	be	.	.	.
.	.	8e]	_	.	.	.
.	.	8d	just	.	.	.
.	.	8~d	the	.	.	.
.	.	8dq	_	.	.	.
.	.	[8e	start!	E	.	.
=44	=44	=44	=44	=44	=44	=44
1CM	C:sus4(b7,9,13)	4e]	_	.	113.66	.
.	.	4r	.	.	.	.
.	.	2r	.	.	.	.
=45	=45	=45	=45	=45	=45	=45
*>Letter>C	*>Letter>C	*>Letter>C	*>Letter>C	*>Letter>C	*>Letter>C	*>Letter>C
*>Label>Prechorus	*>Label>Prechorus	*>Label>Prechorus	*>Label>Prechorus	*>Label>Prechorus	*>Label>Prechorus	*>Label>Prechorus
2C#m	C#:1(b3,b7,11,9)	4r	.	.	116.286	newline
.	.	8f#	I	.	.	.
.	.	8e	_	.	.	.
2F#Mm	F#:7	32e	love	.	117.597	.
.	.	16.d	_	.	.	.
.	.	[8d	you	.	.	.
.	.	8d]	_	.	.	.
.	.	[8e	here	.	.	.
=46	=46	=46	=46	=46	=46	=46
2Bmm	B:min7	8e]	_	.	118.909	.
.	.	8f#	by	.	.	.
.	.	8e	_	.	.	.
.	.	16e	me,	B	.	.
.	.	[16d	_	.	.	.
2EMm	E:7	4d]	_	.	120.221	.
.	.	8dq	_	.	.	.
.	.	8e	ba-	.	.	.
.	.	8eq	_	.	.	.
.	.	8f#	-by	B	.	.
=47	=47	=47	=47	=47	=47	=47
2Am	A:min	4r	.	.	121.533	.
.	.	8f#	you	.	.	.
.	.	8e	_	.	.	.
2DMm	D:7	8e	let	.	122.845	.
.	.	4d	my	.	.	.
.	.	[8a	love	.	.	.
=48	=48	=48	=48	=48	=48	=48
2GMM	G:maj7	8a]	_	.	124.157	.
.	.	8eq	_	.	.	.
.	.	8f	fly	.	.	.
.	.	8e	_	.	.	.
.	.	16e	free	B	.	.
.	.	[16d	_	.	.	.
2CMm	C:13	8d]	_	.	125.469	.
.	.	16e	ly	B	.	.
.	.	16f#	_	.	.	.
.	.	8e	_	.	.	.
.	.	8r	.	.	.	.
=49	=49	=49	=49	=49	=49	=49
2C#m	C#:1(b3,b7,11,9)	4r	.	.	126.781	newline
.	.	8f#	I	.	.	.
.	.	8e	_	.	.	.
2F#Mm	F#:7	8e	want	.	128.099	.
.	.	4d	you	.	.	.
.	.	[8e	in	.	.	.
=50	=50	=50	=50	=50	=50	=50
2Bmm	B:min7	8e]	_	.	129.416	.
.	.	8f#	my	.	.	.
.	.	8d	_	.	.	.
.	.	8d	life	C	.	.
2EMm	E:7	8r	.	.	130.734	.
.	.	8dq	_	.	.	.
.	.	8e	for	.	.	.
.	.	8f#	all	.	.	.
.	.	8f#	time	C	.	.
=51	=51	=51	=51	=51	=51	=51
1AM	A:sus4(b7,9)	16e	_	.	132.052	.
.	.	[8.d	_	.	.	.
.	.	4d_	_	.	.	.
.	.	8.d]	_	.	.	.
.	.	16r	.	.	.	.
.	.	4r	.	.	.	.
=52	=52	=52	=52	=52	=52	=52
.	.	8Aq	_	.	.	.
2..AM	A:sus4(b7,9)	4B	I'm	.	134.688	.
.	.	8c#	_	.	.	.
.	.	[8d	_	.	.	.
.	.	8d]	_	.	.	.
.	.	8e	_	.	.	.
.	.	8f#	_	.	.	.
8Bmm	B:min7	[8a	_	.	.	.
=53	=53	=53	=53	=53	=53	=53
*>Letter>D2	*>Letter>D2	*>Letter>D2	*>Letter>D2	*>Letter>D2	*>Letter>D2	*>Letter>D2
*>Label>Chorus	*>Label>Chorus	*>Label>Chorus	*>Label>Chorus	*>Label>Chorus	*>Label>Chorus	*>Label>Chorus
*b:	*b:	*b:	*	*	*	*
1Bmm	B:min7	2a_	_	.	137.323	newline
.	.	8a]	_	.	.	.
.	.	8~f#	_	.	.	.
.	.	4r	.	.	.	.
=54	=54	=54	=54	=54	=54	=54
.	.	8gq	_	.	.	.
1Bmm	B:min7	8a	caught	.	139.953	.
.	.	8a	up	.	.	.
.	.	32a	in	.	.	.
.	.	16.f#	_	.	.	.
.	.	32f#	the	.	.	.
.	.	16.e	_	.	.	.
.	.	32e	rap-	D	.	.
.	.	16.c#	_	.	.	.
.	.	8c#	-ture	.	.	.
.	.	8c#	of	.	.	.
.	.	32d	love	.	.	.
.	.	[16.B	_	.	.	.
=55	=55	=55	=55	=55	=55	=55
1GMM	G:maj7	2B_	_	.	142.583	.
.	.	8~Gq	_	.	.	.
.	.	8B]	_	.	.	.
.	.	8r	.	.	.	.
.	.	4r	.	.	.	.
=56	=56	=56	=56	=56	=56	=56
.	.	8Aq	_	.	.	.
2Emm	E:min7	4B	No-	.	145.213	.
.	.	8c#	-thing	.	.	.
.	.	[8d	else	.	.	.
2F#Am	F#:aug(b7)	8d]	_	.	146.528	.
.	.	8e	can	.	.	.
.	.	8f#	com	.	.	.
.	.	8eq	_	.	.	.
.	.	8f#	pare	.	.	.
=57	=57	=57	=57	=57	=57	=57
1Bmm	B:min7	2.e	_	.	147.843	newline
.	.	4r	.	.	.	.
=58	=58	=58	=58	=58	=58	=58
.	.	8gq	_	.	.	.
1Bmm	B:min7	8a	When	.	150.485	.
.	.	8a	I	.	.	.
.	.	32a	feel	.	.	.
.	.	16.f#	_	.	.	.
.	.	32f#	the	.	.	.
.	.	16.e	_	.	.	.
.	.	32e	ma-	D	.	.
.	.	16.c#	_	.	.	.
.	.	8c#	-gic	.	.	.
.	.	8c#q	_	.	.	.
.	.	8d	in	.	.	.
.	.	32d	you	A	.	.
.	.	[16.B	_	.	.	.
=59	=59	=59	=59	=59	=59	=59
1GMM	G:maj7	2B_	_	.	153.127	.
.	.	8B]	_	.	.	.
.	.	8r	.	.	.	.
.	.	8r	.	.	.	.
.	.	8A	The	.	.	.
=60	=60	=60	=60	=60	=60	=60
2Emm	E:min7	4B	fee-	.	155.769	.
.	.	8c#	-ling's	.	.	.
.	.	8c#q	_	.	.	.
.	.	[8d	al	.	.	.
2F#Am	F#:aug(b7)	8d]	_	.	157.09	.
.	.	8e	ways	.	.	.
.	.	8eq	_	.	.	.
.	.	8f#	_	.	.	.
.	.	[8a	new	A	.	.
=61	=61	=61	=61	=61	=61	=61
1Bmm	B:min7	2a_	_	.	158.411	newline
.	.	4a]	_	.	.	.
.	.	8~f#	wa	.	.	.
.	.	8r	.	.	.	.
=62	=62	=62	=62	=62	=62	=62
.	.	8gq	_	.	.	.
1Bmm	B:min7	8a	Caught	.	161.025	.
.	.	8a	up	.	.	.
.	.	32a	in	.	.	.
.	.	16.f#	_	.	.	.
.	.	32f#	the	.	.	.
.	.	16.e	_	.	.	.
.	.	32e	rap	D	.	.
.	.	16.c#	_	.	.	.
.	.	8c#	ture	.	.	.
.	.	8c#	of	.	.	.
.	.	32d	you	A	.	.
.	.	[16.B	_	.	.	.
=63	=63	=63	=63	=63	=63	=63
1GMM	G:maj7	2B_	_	.	163.639	.
.	.	8B]	_	.	.	.
.	.	8r	.	.	.	.
.	.	4r	.	.	.	.
=64	=64	=64	=64	=64	=64	=64
.	.	8Aq	_	.	.	.
2Emm	E:min7	4B	I'm	.	166.254	.
.	.	8c#	_	.	.	.
.	.	[8d	_	.	.	.
2AM	A:sus4(b7)	8d]	_	.	167.561	.
.	.	8e	_	.	.	.
.	.	8f#	_	.	.	.
.	.	[8a	_	.	.	.
=65	=65	=65	=65	=65	=65	=65
*>Letter>A2	*>Letter>A2	*>Letter>A2	*>Letter>A2	*>Letter>A2	*>Letter>A2	*>Letter>A2
*>Label>Interlude	*>Label>Interlude	*>Label>Interlude	*>Label>Interlude	*>Label>Interlude	*>Label>Interlude	*>Label>Interlude
*D:	*D:	*D:	*	*	*	*
1DMM	D:maj9	2a_	_	.	168.868	newline
.	.	8.a]	_	.	.	.
.	.	16r	.	.	.	.
.	.	4r	.	.	.	.
=66	=66	=66	=66	=66	=66	=66
4.FM	F:maj/2	1r	.	.	171.489	.
2Amm	A:min7	.	.	.	172.799	.
8CM	C:sus4(b7,9,13)	.	.	.	.	.
=67	=67	=67	=67	=67	=67	=67
1CM	C:sus4(b7,9,13)	1r	.	.	174.109	.
=68	=68	=68	=68	=68	=68	=68
4.Gmm	G:min7	1r	.	.	176.73	.
2AM	A:sus4(b7)	.	.	.	178.041	.
8DMM	D:maj9	.	.	.	.	.
=69	=69	=69	=69	=69	=69	=69
1DMM	D:maj9	1r	.	.	179.351	newline
=70	=70	=70	=70	=70	=70	=70
4.FM	F:maj/2	1r	.	.	181.989	.
2Amm	A:min7	.	.	.	183.307	.
8CM	C:sus4(b7,9,13)	.	.	.	.	.
=71	=71	=71	=71	=71	=71	=71
1CM	C:sus4(b7,9,13)	1r	.	.	184.626	.
=72	=72	=72	=72	=72	=72	=72
4.Gmm	G:min7	1r	.	.	187.264	.
8%5AM	A:sus4(b7)	.	.	.	188.583	.
=73	=73	=73	=73	=73	=73	=73
*>Letter>C	*>Letter>C	*>Letter>C	*>Letter>C	*>Letter>C	*>Letter>C	*>Letter>C
*>Label>Prechorus	*>Label>Prechorus	*>Label>Prechorus	*>Label>Prechorus	*>Label>Prechorus	*>Label>Prechorus	*>Label>Prechorus
2C#m	C#:1(b3,b7,11,9)	4r	.	.	189.902	newline
.	.	4f#	I	.	.	.
2F#Mm	F#:7	8a	love	.	191.217	.
.	.	8aq	_	.	.	.
.	.	[8b	you	.	.	.
.	.	8b]	_	.	.	.
.	.	[8cc#	here	.	.	.
=74	=74	=74	=74	=74	=74	=74
2Bmm	B:min7	8cc#]	_	.	192.533	.
.	.	8cc#q	_	.	.	.
.	.	8dd	by	.	.	.
.	.	8b	_	.	.	.
.	.	[8b	me	B	.	.
2EMm	E:7	8b]	_	.	193.849	.
.	.	16a	_	.	.	.
.	.	16f#	_	.	.	.
.	.	8eq	_	.	.	.
.	.	8f#	ba-	.	.	.
.	.	16e	-by	B	.	.
.	.	16d	_	.	.	.
=75	=75	=75	=75	=75	=75	=75
2Am	A:min	4r	.	.	195.164	.
.	.	8f#	you	.	.	.
.	.	8e	_	.	.	.
2DMm	D:7	8e	let	.	196.48	.
.	.	4d	my	.	.	.
.	.	[8a	love	.	.	.
=76	=76	=76	=76	=76	=76	=76
2GMM	G:maj7	8a]	_	.	197.796	.
.	.	8eq	_	.	.	.
.	.	8f#	fly	.	.	.
.	.	8e	_	.	.	.
.	.	16e	free	(B	.	.
.	.	[16d	_	.	.	.
2CMm	C:13	8d]	_	.	199.111	.
.	.	16e	ly	B)	.	.
.	.	16f#	_	.	.	.
.	.	4e	_	.	.	.
=77	=77	=77	=77	=77	=77	=77
2C#m	C#:1(b3,b7,11,9)	4r	.	.	200.427	newline
.	.	8f#	I	.	.	.
.	.	8e	_	.	.	.
2F#Mm	F#:7	8e	want	.	201.737	.
.	.	4d	you	.	.	.
.	.	[8e	in	.	.	.
=78	=78	=78	=78	=78	=78	=78
2Bmm	B:min7	8e]	_	.	203.047	.
.	.	8f#	my	.	.	.
.	.	8d	_	.	.	.
.	.	8d	life	C	.	.
2EMm	E:7	8r	.	.	204.357	.
.	.	8dq	_	.	.	.
.	.	8e	for	.	.	.
.	.	8f#	all	.	.	.
.	.	8f#q	_	.	.	.
.	.	[8a	time	C	.	.
=79	=79	=79	=79	=79	=79	=79
1AM	A:sus4(b7,9)	2a_	_	.	205.667	.
.	.	8a]	_	.	.	.
.	.	8r	.	.	.	.
.	.	4r	.	.	.	.
=80	=80	=80	=80	=80	=80	=80
.	.	8Aq	_	.	.	.
2..AM	A:sus4(b7,9)	4B	I'm	.	208.287	.
.	.	8c#	_	.	.	.
.	.	[8d	_	.	.	.
.	.	8d]	_	.	.	.
.	.	8e	_	.	.	.
.	.	8f#	_	.	.	.
8Bmm	B:min7	[8a	_	.	.	.
=81	=81	=81	=81	=81	=81	=81
*>Letter>D	*>Letter>D	*>Letter>D	*>Letter>D	*>Letter>D	*>Letter>D	*>Letter>D
*>Label>Solo	*>Label>Solo	*>Label>Solo	*>Label>Solo	*>Label>Solo	*>Label>Solo	*>Label>Solo
*b:	*b:	*b:	*	*	*	*
1Bmm	B:min7	2a_	_	.	210.907	newline
.	.	8a]	_	.	.	.
.	.	8~f#	_	.	.	.
.	.	4r	.	.	.	.
=82	=82	=82	=82	=82	=82	=82
.	.	8gq	_	.	.	.
1Bmm	B:min7	8a	caught	.	213.543	.
.	.	8a	up	.	.	.
.	.	32a	in	.	.	.
.	.	16.f#	_	.	.	.
.	.	32f#	the	.	.	.
.	.	16.e	_	.	.	.
.	.	32e	rap-	D	.	.
.	.	16.c#	_	.	.	.
.	.	8c#	-ture	.	.	.
.	.	8c#	of	.	.	.
.	.	32d	love	.	.	.
.	.	[16.B	_	.	.	.
=83	=83	=83	=83	=83	=83	=83
1GMM	G:maj7	2B_	_	.	216.179	.
.	.	8B]	_	.	.	.
.	.	8r	.	.	.	.
.	.	4r	.	.	.	.
=84	=84	=84	=84	=84	=84	=84
.	.	8Aq	_	.	.	.
2Emm	E:min7	4B	_	.	218.815	.
.	.	8c#	_	.	.	.
.	.	[8d	_	.	.	.
2F#Am	F#:aug(b7)	8d]	_	.	220.133	.
.	.	8e	_	.	.	.
.	.	8f#	_	.	.	.
.	.	8eq	_	.	.	.
.	.	8f#	_	.	.	.
=85	=85	=85	=85	=85	=85	=85
1Bmm	B:min7	2.e	_	.	221.451	newline
.	.	4r	.	.	.	.
=86	=86	=86	=86	=86	=86	=86
1Bmm	B:min7	1r	.	.	224.074	.
=87	=87	=87	=87	=87	=87	=87
1GMM	G:maj7	1r	.	.	226.697	.
=88	=88	=88	=88	=88	=88	=88
2Emm	E:min7	1r	.	.	229.321	.
2F#Am	F#:aug(b7)	.	.	.	230.632	.
=89	=89	=89	=89	=89	=89	=89
1Bmm	B:min7	1r	.	.	231.944	newline
=90	=90	=90	=90	=90	=90	=90
1Bmm	B:min7	1r	.	.	234.586	.
=91	=91	=91	=91	=91	=91	=91
1GMM	G:maj7	1r	.	.	237.227	.
=92	=92	=92	=92	=92	=92	=92
2Emm	E:min7	1r	.	.	239.869	.
2F#Am	F#:aug(b7)	.	.	.	241.19	.
=93	=93	=93	=93	=93	=93	=93
1Bmm	B:min7	1r	.	.	242.511	newline
=94	=94	=94	=94	=94	=94	=94
1Bmm	B:min7	1r	.	.	245.146	.
=95	=95	=95	=95	=95	=95	=95
1GMM	G:maj7	1r	.	.	247.781	.
=96	=96	=96	=96	=96	=96	=96
2Emm	E:min7	1r	.	.	250.416	.
2F#Am	F#:aug(b7)	.	.	.	251.734	.
1r;	1r	r;	.	.	NA	.
*-	*-	*-	*-	*-	*-	*-
!!!BillboardChartDate: 1987/03/21, 1987/02/28
!!!BillboardPeak: 37, 37
!!!BillboardWeeksOnChart: 18, 18
!!!COC: Anita Baker
!!!ENC: Nathaniel Condit-Schultz
!!!EST: Awating manual error checking and editing.
!!!OTL: Caught Up In The Rapture
!!!RDF**chordsym: original McGill chord annotation + (implied pitch class set, with bass pitch in first position)
!!!RDF**harmony: **recip + pitch class of root + harmonic quality
!!!RDF**leadinstrument: original McGill primary instrumentation annotation
!!!RDF**phrase: newline = linebreak in original McGill transcription
!!!RDF**timestamp: McGill audio timestamp in seconds
!!!RDT: 2017/01/12/
!!!SampleActualRank: 85, 56
!!!SampleID#: 647, 709
!!!SampleTargetRank: 85, 56
!!!MBID: b1c858fa-b517-4ab0-ab63-d3f55e963b6b
